web/wp-content/themes/cncf-twenty-two/images/cncf-icon-rocket.svg

<svg width="116" height="116" viewBox="0 0 116 116" fill="none" xmlns="http://www.w3.org/2000/svg">
<path d="M63 37.9982L78.0035 53L93 37.9982L78.0035 23L63 37.9982ZM73.1683 34.7791V41.2209L69.939 37.9982L73.1683 34.7791ZM76.6746 44.7276V31.2723L78.0035 29.9433L79.5989 31.5389V44.4576L78.0035 46.0567L76.6746 44.7276ZM83.1052 40.9509V35.0456L86.0575 37.9982L83.1052 40.9509Z" fill="black"/>
<path d="M115.8 0.20114C114.064 0.0635198 112.352 0 110.676 0C80.9821 0 60.9271 20.1632 60.9271 20.1632L46.9902 34.0981H27.0164L0 61.1176H22.0238L38.4587 77.5368L54.8901 93.9701V116L81.9065 88.9805V69.0044L95.8258 55.08C95.8258 55.08 118.344 32.6866 115.8 0.20114ZM29.9414 41.1556H39.9195L27.0164 54.0602H17.0383L29.9414 41.1556ZM74.8499 86.0693L61.9468 98.9739V88.9946L74.8499 76.0901V86.0693ZM90.8367 50.0762L55.9063 85.0107L43.4443 72.5507L30.9858 60.0872L39.6584 51.4136L65.9091 25.1599C65.9585 25.114 70.6441 20.4984 78.5793 15.9852C88.4092 10.3851 98.6132 7.39622 108.923 7.09275C108.641 16.885 105.92 26.5925 100.808 36.0284C96.0869 44.7373 90.9814 49.9563 90.8473 50.0904L90.8367 50.0762Z" fill="black"/>
<path d="M32.5677 77.7741L13.084 97.2578L18.5731 102.747L38.0568 83.2631L32.5677 77.7741Z" fill="url(#paint0_linear_3366_12648)"/>
<path d="M42.3177 87.3825L22.834 106.866L28.3231 112.355L47.8068 92.8715L42.3177 87.3825Z" fill="url(#paint1_linear_3366_12648)"/>
<path d="M23.1381 68.2013L3.6543 87.6851L9.14338 93.1741L28.6271 73.6904L23.1381 68.2013Z" fill="url(#paint2_linear_3366_12648)"/>
<defs>
<linearGradient id="paint0_linear_3366_12648" x1="15.831" y1="100.005" x2="35.3173" y2="80.5186" gradientUnits="userSpaceOnUse">
<stop stop-color="#F244B1"/>
<stop offset="1" stop-color="#5C2CFF"/>
</linearGradient>
<linearGradient id="paint1_linear_3366_12648" x1="25.581" y1="109.613" x2="45.0673" y2="90.127" gradientUnits="userSpaceOnUse">
<stop stop-color="#F244B1"/>
<stop offset="1" stop-color="#5C2CFF"/>
</linearGradient>
<linearGradient id="paint2_linear_3366_12648" x1="6.40133" y1="90.4321" x2="25.8876" y2="70.9458" gradientUnits="userSpaceOnUse">
<stop stop-color="#F244B1"/>
<stop offset="1" stop-color="#5C2CFF"/>
</linearGradient>
</defs>
</svg>

<svg width="116" height="116" fill="none" xmlns="http://www.w3.org/2000/svg"><path d="M63 37.998L78.004 53 93 37.998 78.004 23 63 37.998zm10.168-3.219v6.442l-3.229-3.223 3.23-3.219zm3.507 9.949V31.272l1.329-1.329 1.595 1.596v12.919l-1.596 1.599-1.328-1.33zm6.43-3.777v-5.905l2.953 2.952-2.953 2.953z" fill="#000"/><path d="M115.8.201A64.87 64.87 0 0 0 110.676 0C80.982 0 60.927 20.163 60.927 20.163L46.99 34.098H27.016L0 61.118h22.024l16.435 16.419L54.89 93.97V116l27.016-27.02V69.005l13.92-13.924S118.344 32.687 115.8.201zM29.941 41.156h9.979L27.015 54.06h-9.978l12.903-12.904zM74.85 86.069L61.947 98.974v-9.98L74.85 76.09v9.98zm15.987-35.993l-34.93 34.935-12.463-12.46-12.458-12.464 8.672-8.673L65.91 25.16c.05-.046 4.735-4.662 12.67-9.175 9.83-5.6 20.034-8.589 30.344-8.892-.282 9.792-3.003 19.5-8.115 28.935-4.721 8.71-9.827 13.928-9.96 14.062l-.011-.014z" fill="#000"/><path d="M32.568 77.774L13.084 97.258l5.49 5.489 19.483-19.484-5.49-5.489z" fill="url(#paint0_linear_3366_12648)"/><path d="M42.318 87.382l-19.484 19.484 5.49 5.489 19.483-19.484-5.49-5.489z" fill="url(#paint1_linear_3366_12648)"/><path d="M23.138 68.201L3.654 87.685l5.49 5.49L28.626 73.69l-5.489-5.489z" fill="url(#paint2_linear_3366_12648)"/><defs><linearGradient id="paint0_linear_3366_12648" x1="15.831" y1="100.005" x2="35.317" y2="80.519" gradientUnits="userSpaceOnUse"><stop stop-color="#F244B1"/><stop offset="1" stop-color="#5C2CFF"/></linearGradient><linearGradient id="paint1_linear_3366_12648" x1="25.581" y1="109.613" x2="45.067" y2="90.127" gradientUnits="userSpaceOnUse"><stop stop-color="#F244B1"/><stop offset="1" stop-color="#5C2CFF"/></linearGradient><linearGradient id="paint2_linear_3366_12648" x1="6.401" y1="90.432" x2="25.888" y2="70.946" gradientUnits="userSpaceOnUse"><stop stop-color="#F244B1"/><stop offset="1" stop-color="#5C2CFF"/></linearGradient></defs></svg>
